X:36
T:score129
L:1/16
Q:1/4=96
M:2/4
I:linebreak $
K:C#min
 GG | c2 z2 c4- | c^Bcd eAed | c4 c2>^B2 | c4- c2>d2 | e2 z2 e4- |$ edef gdgf | e4 e2>d2 | e4 g4 | %9
 c'2 z2 z4 |] %10
